svg/300/outlined/visibility_off-fill.svg

<svg xmlns="http://www.w3.org/2000/svg" width="48" height="48" viewBox="0 -960 960 960"><path d="m807.922-90.925-161.845-160q-30.769 13.616-74.384 22.27-43.616 8.654-91.693 8.654-137.538 0-250.768-76.115Q116.001-372.231 61.54-500q21.539-52.385 59.154-101.115 37.616-48.731 87.077-89.115L85.233-812.384l31.999-32.615L837.691-124.54l-29.769 33.615ZM480-344.232q14.769 0 32.693-3.269 17.923-3.269 28.153-9.039L336.54-560.846q-5.77 11.615-9.039 28.73Q324.232-515 324.232-500q0 65.846 45.576 110.807Q415.385-344.232 480-344.232Zm267.999 36.538L620.922-434.386q6.923-12.153 10.885-29.615 3.961-17.461 3.961-35.999 0-65.23-45.269-110.499Q545.23-655.768 480-655.768q-18.538 0-35.307 3.846-16.769 3.846-29.923 11.769l-105.769-106q33.462-14.461 81.423-24.153 47.961-9.693 93.422-9.693 134.538 0 248.038 76.115Q845.383-627.769 898.46-500q-24.461 57.461-62.192 105.653-37.731 48.192-88.269 86.653Zm-162.23-161.46-136.23-136.231q27.077-9.076 55.961-2.384 28.885 6.692 50.346 27.154 21.846 21.461 31.038 48.615 9.193 27.154-1.115 62.846Z"/></svg>

<svg xmlns="http://www.w3.org/2000/svg" width="48" height="48" viewBox="0 -960 960 960"><path d="M807.92-90.93 646.08-250.92q-30.77 13.61-74.39 22.26Q528.08-220 480-220q-137.54 0-250.77-76.12Q116-372.23 61.54-500q21.54-52.38 59.15-101.12 37.62-48.73 87.08-89.11L85.23-812.38l32-32.62 720.46 720.46-29.77 33.61ZM480-344.23q14.77 0 32.69-3.27 17.93-3.27 28.16-9.04L336.54-560.85q-5.77 11.62-9.04 28.73-3.27 17.12-3.27 32.12 0 65.85 45.58 110.81 45.58 44.96 110.19 44.96Zm268 36.54-127.08-126.7q6.93-12.15 10.89-29.61 3.96-17.46 3.96-36 0-65.23-45.27-110.5-45.27-45.27-110.5-45.27-18.54 0-35.31 3.85-16.77 3.84-29.92 11.77L309-746.15q33.46-14.46 81.42-24.16 47.97-9.69 93.43-9.69 134.53 0 248.03 76.12Q845.38-627.77 898.46-500 874-442.54 836.27-394.35q-37.73 48.19-88.27 86.66ZM585.77-469.15 449.54-605.38q27.08-9.08 55.96-2.39 28.88 6.69 50.35 27.15 21.84 21.47 31.03 48.62 9.2 27.15-1.11 62.85Z"/></svg>
